packages/icons/general/AccountBalanceWallet.light.svg

<svg viewBox="0 0 27 26" xmlns="http://www.w3.org/2000/svg">
    <path
        d="M2.13062 14.2392V24.498V14.2392ZM21.9248 2.17517H4.84818C3.34754 2.17517 2.13062 3.39209 2.13062 4.89273V21.1076C2.13062 22.6082 3.34754 23.8252 4.84818 23.8252H21.9248C23.4254 23.8252 24.6424 22.6082 24.6424 21.1076V4.89273C24.6424 3.39182 23.4254 2.17517 21.9248 2.17517ZM22.7401 21.1076C22.7401 21.5571 22.3743 21.9229 21.9248 21.9229H4.84818C4.39869 21.9229 4.03291 21.5571 4.03291 21.1076V4.89273C4.03291 4.44325 4.39869 4.07746 4.84818 4.07746H21.9248C22.3743 4.07746 22.7401 4.44325 22.7401 4.89273V21.1076Z"
        fill="#111418"
    />
    <path
        d="M22.7401 15.8696H17.524C15.9418 15.8696 14.6545 14.5823 14.6545 12.9998C14.6545 11.4174 15.9415 10.1304 17.524 10.1304H22.7401V8.22806H17.524C14.8887 8.22806 12.7522 10.3643 12.7522 12.9998C12.7522 15.6353 14.8885 17.7719 17.524 17.7719H22.7401V15.8696Z"
        fill="#111418"
    />
    <path
        d="M17.7461 13.0002C17.7461 13.2524 17.8463 13.4943 18.0247 13.6727C18.2031 13.8511 18.445 13.9513 18.6972 13.9513C18.9495 13.9513 19.1914 13.8511 19.3698 13.6727C19.5482 13.4943 19.6484 13.2524 19.6484 13.0002C19.6484 12.7479 19.5482 12.506 19.3698 12.3276C19.1914 12.1492 18.9495 12.049 18.6972 12.049C18.445 12.049 18.2031 12.1492 18.0247 12.3276C17.8463 12.506 17.7461 12.7479 17.7461 13.0002Z"
        fill="#111418"
    />
</svg>

<svg xmlns="http://www.w3.org/2000/svg" viewBox="0 0 27 26">
    <path fill="#111418" d="M2.13 14.24v10.258-10.259ZM21.926 2.174H4.848a2.718 2.718 0 0 0-2.717 2.718v16.215c0 1.5 1.217 2.717 2.717 2.717h17.077c1.5 0 2.717-1.217 2.717-2.717V4.893a2.718 2.718 0 0 0-2.717-2.718Zm.815 18.933c0 .45-.366.815-.815.815H4.848a.816.816 0 0 1-.815-.815V4.893c0-.45.366-.816.815-.816h17.077c.45 0 .815.366.815.816v16.215Z"/>
    <path fill="#111418" d="M22.74 15.87h-5.216a2.873 2.873 0 0 1-2.87-2.87 2.872 2.872 0 0 1 2.87-2.87h5.216V8.228h-5.216a4.772 4.772 0 1 0 0 9.544h5.216V15.87Z"/>
    <path fill="#111418" d="M17.746 13a.951.951 0 1 0 1.902 0 .951.951 0 0 0-1.902 0Z"/>
</svg>
